src/lib/assets/icons/web.svg

<svg xmlns="http://www.w3.org/2000/svg" width="120" height="120" fill="none" viewBox="0 0 120 120">
  <path
    fill="#6dd743"
    d="M105 10H15C9.5 10 5 14.5 5 20v80c0 5.5 4.5 10 10 10h90c5.5 0 10-4.5 10-10V20c0-5.5-4.5-10-10-10Zm0 90H15V30h90v70ZM30 40v50h20V80H40V50h10V40H30Zm50 40H70v10h20V40H70v10h10v30Z"
  />
</svg>

<svg width="120" height="120" viewBox="0 0 120 120" fill="none" xmlns="http://www.w3.org/2000/svg">
<path d="M105 10H15C9.5 10 5 14.5 5 20V100C5 105.5 9.5 110 15 110H105C110.5 110 115 105.5 115 100V20C115 14.5 110.5 10 105 10ZM105 100H15V30H105V100ZM30 40V90H50V80H40V50H50V40H30ZM80 80H70V90H90V40H70V50H80V80Z" fill="#6DD743"/>
</svg>
